svg/watchtower.svg

<svg xmlns="http://www.w3.org/2000/svg" xml:space="preserve" style="fill-rule:evenodd;clip-rule:evenodd;stroke-linecap:round;stroke-linejoin:round;stroke-miterlimit:1.5" viewBox="0 0 1920 1920"><g transform="translate(-24.25 -702.116) scale(.21225)"><circle cx="4637.19" cy="7830.89" r="3948.73" style="fill:none"/><clipPath id="a"><circle cx="4637.19" cy="7830.89" r="3948.73"/></clipPath><g clip-path="url(#a)"><circle cx="4637.19" cy="7830.89" r="3948.73" style="fill:#406170" transform="matrix(1.11849 0 0 1.22913 -549.48 -1398.65)"/><path d="m8247.06 8165.71-2736.96 7.16 895.94-1024.79 699.09-1.19 1141.93 1018.82Z" style="fill:#acbfc7" transform="matrix(0 -.864 -3.73934 0 31090.356 13916.716)"/><ellipse cx="5203.24" cy="7389.29" rx="173.813" ry="391.607" style="fill:#acbfc7" transform="matrix(-.56136 0 0 .77045 7280.446 2386.316)"/><path d="m8247.06 8165.71-2736.96 7.16 895.94-1024.79 699.09-1.19 1141.93 1018.82Z" style="fill:#acbfc7" transform="matrix(0 -.864 3.73934 0 -21722.144 13916.793)"/><ellipse cx="5203.24" cy="7389.29" rx="173.813" ry="391.607" style="fill:#acbfc7" transform="matrix(.56136 0 0 .77045 2087.736 2386.323)"/><path d="M5355.12 8036.04h-668.35l82.22-916.7h503.92l82.21 916.7Z" style="fill:#003343" transform="matrix(1.34973 0 0 1.30833 -2089.03 -1687.25)"/><path d="M6620.47 6410.82H3401.93v2025.44h3218.54V6410.82Zm-84.12 113.86h-911.08v1433.09h911.08V6524.68Zm-2137.19 0h-911.08v1431.33h911.08V6524.68Zm1132.63 0H4493.88v1431.33h1037.91V6524.68Z" style="fill:#fff" transform="translate(-315.312 829.075) scale(.99717)"/><path d="m2113.47 9142.23 906.45 480.6-218.2 1566.87c22.85 10.7 541.67 462.1 1852.98 483.4 21.03.4 15.79-2615.76 15.79-2615.76l-2555.46 12.29-1.56 72.6Z" style="fill:#003343" transform="matrix(-.99348 0 0 .95861 9294.8 545.424)"/><path d="m2113.47 9142.23 906.45 480.6-218.2 1566.87c22.85 10.7 541.67 462.1 1852.98 483.4 21.03.4 15.79-2615.76 15.79-2615.76l-2555.46 12.29-1.56 72.6Z" style="fill:#003343" transform="matrix(.9947 0 0 .96605 60.678 477.843)"/><path d="m4653.57 5342.87 1780.99 1543.17H2872.58l1780.99-1543.17Z" style="fill:#003343" transform="matrix(.99717 0 0 .56513 37.066 3298.6)"/><path d="M2242.94 8697.8h72.367v397.142h-72.367z" style="fill:#003343" transform="translate(17.083 195.597) scale(.99717)"/><path d="M2242.94 8697.8h72.367v397.142h-72.367z" style="fill:#003343" transform="translate(804.851 195.597) scale(.99717)"/><path d="M2242.94 8697.8h72.367v397.142h-72.367z" style="fill:#003343" transform="translate(4006.77 195.597) scale(.99717)"/><path d="M2242.94 8697.8h72.367v397.142h-72.367z" style="fill:#003343" transform="translate(2885.98 195.597) scale(.99717)"/><path d="M2242.94 8697.8h72.367v397.142h-72.367z" style="fill:#003343" transform="translate(1941.29 195.597) scale(.99717)"/><path d="M2242.94 8697.8h72.367v397.142h-72.367z" style="fill:#003343" transform="translate(4794.54 195.597) scale(.99717)"/><path d="M2244.59 8703.27h4864.36v84.48H2244.59z" style="fill:#003343" transform="matrix(.99668 0 0 .99717 18.196 190.14)"/><path d="M2902.63 7016.56h3555.18v59.635H2902.63z" style="fill:#003343" transform="matrix(.99974 0 0 1.06349 -3.212 -273.7)"/><path d="M5929.64 11166.2H3390.05l-77.52 735.8H6008.2l-78.56-735.8Z" style="fill:#fff" transform="matrix(1.27611 0 0 .98357 -1266.89 -1191.68)"/><path d="M6069.48 11166.2H3219.12l-77.52 735.8h2990.04l-62.16-735.8Z" style="fill:#fff" transform="matrix(1.28347 0 0 .99717 -1276.87 135.767)"/></g><circle cx="4637.19" cy="7830.89" r="3948.73" style="fill:none;stroke:#304954;stroke-width:88.34px"/></g></svg>

<?xml version="1.0" encoding="UTF-8" standalone="no"?>
<!DOCTYPE svg PUBLIC "-//W3C//DTD SVG 1.1//EN" "http://www.w3.org/Graphics/SVG/1.1/DTD/svg11.dtd">
<svg width="100%" height="100%" viewBox="0 0 1920 1920" version="1.1" xmlns="http://www.w3.org/2000/svg" xmlns:xlink="http://www.w3.org/1999/xlink" xml:space="preserve" xmlns:serif="http://www.serif.com/" style="fill-rule:evenodd;clip-rule:evenodd;stroke-linecap:round;stroke-linejoin:round;stroke-miterlimit:1.5;">
    <g transform="matrix(0.212251,0,0,0.212251,-24.2494,-702.116)">
        <circle cx="4637.19" cy="7830.89" r="3948.73" style="fill:none;"/>
        <clipPath id="_clip1">
            <circle cx="4637.19" cy="7830.89" r="3948.73"/>
        </clipPath>
        <g clip-path="url(#_clip1)">
            <g transform="matrix(1.11849,0,0,1.22913,-549.48,-1398.65)">
                <circle cx="4637.19" cy="7830.89" r="3948.73" style="fill:rgb(64,97,112);"/>
            </g>
            <g transform="matrix(1,0,0,1,24.4559,-57.0841)">
                <g transform="matrix(-2.36532e-17,-0.863998,-3.73934,5.12128e-16,31065.9,13973.8)">
                    <path d="M8247.06,8165.71L5510.1,8172.87L6406.04,7148.08L7105.13,7146.89L8247.06,8165.71Z" style="fill:rgb(172,191,199);"/>
                </g>
                <g transform="matrix(-0.561358,0,0,0.770447,7255.99,2443.4)">
                    <ellipse cx="5203.24" cy="7389.29" rx="173.813" ry="391.607" style="fill:rgb(172,191,199);"/>
                </g>
            </g>
            <g transform="matrix(1,0,0,1,24.4559,-38.1071)">
                <g transform="matrix(2.36532e-17,-0.863998,3.73934,5.12128e-16,-21746.6,13954.9)">
                    <path d="M8247.06,8165.71L5510.1,8172.87L6406.04,7148.08L7105.13,7146.89L8247.06,8165.71Z" style="fill:rgb(172,191,199);"/>
                </g>
                <g transform="matrix(0.561358,0,0,0.770447,2063.28,2424.43)">
                    <ellipse cx="5203.24" cy="7389.29" rx="173.813" ry="391.607" style="fill:rgb(172,191,199);"/>
                </g>
            </g>
            <g transform="matrix(1.34973,0,0,1.30833,-2089.03,-1687.25)">
                <path d="M5355.12,8036.04L4686.77,8036.04L4768.99,7119.34L5272.91,7119.34L5355.12,8036.04Z" style="fill:rgb(0,51,67);"/>
            </g>
            <g transform="matrix(0.997174,0,0,0.997174,-315.312,829.075)">
                <path d="M6620.47,6410.82L3401.93,6410.82L3401.93,8436.26L6620.47,8436.26L6620.47,6410.82ZM6536.35,6524.68L5625.27,6524.68L5625.27,7957.77L6536.35,7957.77L6536.35,6524.68ZM4399.16,6524.68L3488.08,6524.68L3488.08,7956.01L4399.16,7956.01L4399.16,6524.68ZM5531.79,6524.68L4493.88,6524.68L4493.88,7956.01L5531.79,7956.01L5531.79,6524.68Z" style="fill:white;"/>
            </g>
            <g transform="matrix(-0.993484,0,0,0.958612,9294.8,545.424)">
                <path d="M2113.47,9142.23L3019.92,9622.83L2801.72,11189.7C2824.57,11200.4 3343.39,11651.8 4654.7,11673.1C4675.73,11673.5 4670.49,9057.34 4670.49,9057.34L2115.03,9069.63L2113.47,9142.23Z" style="fill:rgb(0,51,67);"/>
            </g>
            <g transform="matrix(0.994692,0,0,0.966055,60.6784,477.843)">
                <path d="M2113.47,9142.23L3019.92,9622.83L2801.72,11189.7C2824.57,11200.4 3343.39,11651.8 4654.7,11673.1C4675.73,11673.5 4670.49,9057.34 4670.49,9057.34L2115.03,9069.63L2113.47,9142.23Z" style="fill:rgb(0,51,67);"/>
            </g>
            <g id="_-Triangle-" serif:id="(Triangle)" transform="matrix(0.997174,0,0,0.565134,37.0656,3298.6)">
                <path d="M4653.57,5342.87L6434.56,6886.04L2872.58,6886.04L4653.57,5342.87Z" style="fill:rgb(0,51,67);"/>
            </g>
            <g transform="matrix(0.997174,0,0,0.997174,17.0834,195.597)">
                <rect x="2242.94" y="8697.8" width="72.367" height="397.142" style="fill:rgb(0,51,67);"/>
            </g>
            <g transform="matrix(0.997174,0,0,0.997174,804.851,195.597)">
                <rect x="2242.94" y="8697.8" width="72.367" height="397.142" style="fill:rgb(0,51,67);"/>
            </g>
            <g transform="matrix(0.997174,0,0,0.997174,4006.77,195.597)">
                <rect x="2242.94" y="8697.8" width="72.367" height="397.142" style="fill:rgb(0,51,67);"/>
            </g>
            <g transform="matrix(0.997174,0,0,0.997174,2885.98,195.597)">
                <rect x="2242.94" y="8697.8" width="72.367" height="397.142" style="fill:rgb(0,51,67);"/>
            </g>
            <g transform="matrix(0.997174,0,0,0.997174,1941.29,195.597)">
                <rect x="2242.94" y="8697.8" width="72.367" height="397.142" style="fill:rgb(0,51,67);"/>
            </g>
            <g transform="matrix(0.997174,0,0,0.997174,4794.54,195.597)">
                <rect x="2242.94" y="8697.8" width="72.367" height="397.142" style="fill:rgb(0,51,67);"/>
            </g>
            <g transform="matrix(0.996678,0,0,0.997174,18.1958,190.14)">
                <rect x="2244.59" y="8703.27" width="4864.36" height="84.48" style="fill:rgb(0,51,67);"/>
            </g>
            <g transform="matrix(0.99974,0,0,1.06349,-3.2116,-273.7)">
                <rect x="2902.63" y="7016.56" width="3555.18" height="59.635" style="fill:rgb(0,51,67);"/>
            </g>
            <g transform="matrix(6.23493,0,0,6.23493,547.111,3771.74)">
            </g>
            <g transform="matrix(1.27611,0,0,0.983565,-1266.89,-1191.68)">
                <path d="M5929.64,11166.2L3390.05,11166.2L3312.53,11902L6008.2,11902L5929.64,11166.2Z" style="fill:white;"/>
            </g>
            <g transform="matrix(1.28347,0,0,0.997174,-1276.87,135.767)">
                <path d="M6069.48,11166.2L3219.12,11166.2L3141.6,11902L6131.64,11902L6069.48,11166.2Z" style="fill:white;"/>
            </g>
        </g>
        <circle cx="4637.19" cy="7830.89" r="3948.73" style="fill:none;stroke:rgb(48,73,84);stroke-width:88.34px;"/>
    </g>
</svg>
